wp-content/themes/everta/images/interviews-logo.svg

<svg width="225" height="225" viewBox="0 0 225 225" fill="none" xmlns="http://www.w3.org/2000/svg">
<path d="M82.3901 73.3C92.8901 73.3 103.39 73.3 113.89 73.3C116.86 73.3 117 73.41 118.01 76.26C122.31 88.45 123.84 100.98 122.6 113.86C122.48 115.08 122.06 115.68 120.76 115.59C119.3 115.49 119.73 114.44 119.76 113.66C119.83 111.86 120 110.07 120.11 108.27C120.19 106.94 119.5 106.32 118.22 106.29C117.72 106.28 117.23 106.28 116.73 106.28C95.6701 106.28 74.6101 106.28 53.5401 106.28C50.2501 106.28 49.9001 106.63 49.8901 109.89C49.8901 116.85 49.8901 123.81 49.8901 130.77C49.8901 133.25 50.3401 133.71 52.8301 133.72C56.5601 133.74 60.2901 133.71 64.0101 133.72C65.3701 133.72 66.1501 133.25 66.4701 131.78C67.9701 124.91 74.1801 119.46 80.8001 119.1C88.6601 118.68 95.0601 122.9 97.5301 130.13C98.6801 133.49 98.9701 133.71 102.43 133.71C105.66 133.71 108.89 133.71 112.12 133.71C114.96 133.71 115.14 133.55 116.02 130.77C116.47 129.35 116.95 127.94 117.39 126.51C117.62 125.75 118.01 125.15 118.79 124.89C119.79 124.56 120.49 124.84 120.27 125.99C119.64 129.29 118.59 132.48 117.23 135.55C116.69 136.76 115.46 136.77 114.32 136.77C110.22 136.77 106.12 136.77 102.02 136.75C98.7101 136.75 98.6101 136.8 97.6201 140.02C95.6901 146.35 91.3901 150.1 84.9501 151.21C78.6801 152.29 73.4301 150.29 69.4701 145.23C68.0401 143.4 67.1001 141.28 66.6001 139.02C66.2201 137.29 65.2501 136.72 63.5601 136.75C59.1501 136.82 54.7401 136.79 50.3301 136.77C47.5801 136.76 47.0801 136.24 47.0801 133.48C47.0801 114.41 47.0801 95.33 47.0801 76.26C47.0801 73.66 47.4601 73.29 50.1401 73.29C60.8901 73.29 71.6401 73.29 82.3901 73.29V73.3ZM101.98 103.53C107.13 103.53 112.29 103.54 117.44 103.53C119.83 103.53 120.26 103.13 120.1 100.85C119.57 93.21 118.39 85.69 115.88 78.42C115.3 76.75 114.39 76.06 112.62 76.07C103.93 76.12 95.2301 76.07 86.5401 76.09C84.1301 76.09 83.7101 76.51 83.7001 78.92C83.6801 86.19 83.6801 93.45 83.7001 100.72C83.7001 103.16 84.0901 103.53 86.5201 103.54C91.6701 103.56 96.8301 103.54 101.98 103.54V103.53ZM65.2801 103.53C69.5101 103.53 73.7301 103.54 77.9601 103.53C80.5401 103.53 80.9701 103.1 80.9501 100.46C80.9401 98.47 80.7601 96.49 80.7601 94.51C80.7401 89.36 80.7201 84.2 80.9401 79.05C81.0401 76.71 80.2901 76.09 77.9301 76.09C69.5401 76.09 61.1501 76.09 52.7701 76.09C50.5001 76.09 49.9101 76.67 49.9001 78.97C49.8801 86.24 49.8901 93.51 49.9001 100.78C49.9001 103.08 50.3301 103.53 52.6101 103.54C56.8301 103.56 61.0601 103.54 65.2901 103.54L65.2801 103.53ZM82.0401 148.62C89.5301 148.69 95.2701 143.08 95.6201 135.92C96.0301 127.55 88.5501 121.76 82.5401 121.82C75.0701 121.89 68.9501 127.63 68.8801 134.93C68.8101 142.68 74.4501 148.54 82.0401 148.62Z" fill="black"/>
<path d="M156.71 151.39C151.99 151.39 147.27 151.39 142.55 151.39C141.63 151.39 140.46 151.5 140.38 150.22C140.29 148.85 141.52 148.75 142.5 148.69C143.99 148.6 145.48 148.68 146.97 148.62C149 148.55 149.57 147.94 149.62 145.87C149.64 144.94 149.64 144.01 149.62 143.08C149.6 140.87 149.22 140.46 147.01 140.45C142.23 140.44 137.45 140.47 132.66 140.47C128.09 140.47 127.97 140.34 127.97 135.77C127.97 132.04 127.97 128.32 127.97 124.59C127.97 122.22 127.63 121.88 125.28 121.84C118.76 121.73 112.24 121.64 105.73 121.53C105.11 121.52 104.49 121.49 103.89 121.36C103.29 121.23 102.94 120.78 102.91 120.15C102.88 119.48 103.32 119.1 103.9 118.97C104.5 118.83 105.12 118.78 105.74 118.76C113.25 118.58 120.76 118.97 128.27 119.09C130.25 119.12 130.73 119.63 130.74 121.72C130.77 126.07 130.74 130.42 130.76 134.76C130.76 137.02 131.12 137.37 133.36 137.37C137.96 137.39 142.55 137.39 147.15 137.37C149.27 137.36 149.61 136.99 149.62 134.83C149.62 134.27 149.6 133.71 149.6 133.15C149.6 128.94 149.6 128.96 145.3 128.94C139.94 128.91 140.54 129.59 138.82 124.15C136.22 115.93 134.79 107.49 135.11 98.8498C135.41 90.7998 137 82.9698 139.71 75.3698C140.26 73.8398 141.23 73.2598 142.79 73.2598C152.04 73.2898 161.3 73.2898 170.55 73.2598C172.22 73.2598 173.19 73.8898 173.75 75.4698C176 81.8198 177.47 88.3498 178.08 95.0498C179.05 105.67 177.42 115.96 174.01 126.01C173.09 128.74 172.8 128.94 169.86 128.93C168.49 128.93 167.13 128.97 165.76 128.93C164.21 128.89 163.59 129.77 163.67 131.14C163.99 136.17 163.77 141.2 163.79 146.23C163.79 147.98 164.44 148.7 166.22 148.64C168.01 148.57 169.82 148.68 171.61 148.79C172.37 148.84 173.15 149.15 173.13 150.1C173.11 151.18 172.26 151.35 171.41 151.35C166.5 151.36 161.6 151.35 156.69 151.35V151.37L156.71 151.39ZM156.86 76.0698C152.95 76.0698 149.03 76.1198 145.12 76.0498C143.22 76.0098 142.15 76.7298 141.56 78.5698C136.79 93.5898 136.76 108.58 141.5 123.62C142.13 125.61 143.25 126.37 145.31 126.34C152.64 126.25 159.97 126.3 167.3 126.26C170.62 126.25 171.36 125.69 172.33 122.47C174.59 114.92 175.62 107.21 175.4 99.3098C175.21 92.3798 174.2 85.5998 172.03 78.9998C171.15 76.2998 170.74 76.0598 167.85 76.0698C164.18 76.0698 160.52 76.0698 156.85 76.0698H156.86ZM152.4 138.8C152.4 141.34 152.42 143.89 152.4 146.43C152.38 147.89 153.02 148.64 154.5 148.63C155.99 148.63 157.48 148.6 158.96 148.63C160.5 148.66 161.12 147.8 161.05 146.42C160.82 141.34 160.8 136.26 161.05 131.18C161.12 129.78 160.46 128.95 158.94 128.96C157.51 128.98 156.09 129 154.66 128.94C153.07 128.88 152.38 129.62 152.39 131.16C152.4 133.7 152.39 136.25 152.39 138.79L152.4 138.8Z" fill="black"/>
<path d="M154.15 102.55C152.99 102.31 151.18 103.22 150.42 101.62C149.75 100.19 151.25 99.1499 151.97 98.0599C153.75 95.3699 155.65 92.7499 157.51 90.1199C157.9 89.5599 158.28 88.9699 158.95 88.7099C159.47 88.5099 159.95 88.6299 160.3 89.0399C160.9 89.7299 160.68 90.4499 160.23 91.0899C158.79 93.1899 157.3 95.2499 155.86 97.3499C155.49 97.8899 154.83 98.4099 155.17 99.1599C155.56 100.02 156.45 99.7699 157.16 99.7899C158.52 99.8399 159.9 99.7599 161.26 99.8399C163.2 99.9599 163.74 100.95 162.66 102.53C160.36 105.92 157.98 109.25 155.61 112.6C155.05 113.39 154.36 114.16 153.31 113.42C152.34 112.73 152.85 111.85 153.34 111.12C154.59 109.27 155.91 107.47 157.17 105.62C157.68 104.88 158.55 104.14 158.01 103.13C157.5 102.18 156.45 102.64 155.62 102.56C155.19 102.52 154.75 102.56 154.14 102.56L154.15 102.55Z" fill="black"/>
</svg>

<?xml version="1.0" encoding="UTF-8"?>
<svg id="Layer_1" xmlns="http://www.w3.org/2000/svg" viewBox="0 0 224.37 224.37">
  <path d="M224.37,111.99c-.02,62.22-50.2,112.29-112.85,111.9C49.35,223.51-.15,172.67.5,110.7,1.13,50.31,49.82-.03,112.53,0c63.21.03,111.98,51.32,111.83,111.99ZM222.42,112.05c.49-59.65-47.98-109.51-108.67-110.18C51.24,1.18,2.49,52.01,2.36,111.67c-.13,60.44,48.95,110.27,109.89,110.37,61.88.1,110.62-50.62,110.17-109.99Z"/>
  <path d="M82.39,73.3c10.5,0,21,0,31.5,0,2.97,0,3.11.11,4.12,2.96,4.3,12.19,5.83,24.72,4.59,37.6-.12,1.22-.54,1.82-1.84,1.73-1.46-.1-1.03-1.15-1-1.93.07-1.8.24-3.59.35-5.39.08-1.33-.61-1.95-1.89-1.98-.5-.01-.99-.01-1.49-.01-21.06,0-42.12,0-63.19,0-3.29,0-3.64.35-3.65,3.61,0,6.96,0,13.92,0,20.88,0,2.48.45,2.94,2.94,2.95,3.73.02,7.46-.01,11.18,0,1.36,0,2.14-.47,2.46-1.94,1.5-6.87,7.71-12.32,14.33-12.68,7.86-.42,14.26,3.8,16.73,11.03,1.15,3.36,1.44,3.58,4.9,3.58,3.23,0,6.46,0,9.69,0,2.84,0,3.02-.16,3.9-2.94.45-1.42.93-2.83,1.37-4.26.23-.76.62-1.36,1.4-1.62,1-.33,1.7-.05,1.48,1.1-.63,3.3-1.68,6.49-3.04,9.56-.54,1.21-1.77,1.22-2.91,1.22-4.1,0-8.2,0-12.3-.02-3.31,0-3.41.05-4.4,3.27-1.93,6.33-6.23,10.08-12.67,11.19-6.27,1.08-11.52-.92-15.48-5.98-1.43-1.83-2.37-3.95-2.87-6.21-.38-1.73-1.35-2.3-3.04-2.27-4.41.07-8.82.04-13.23.02-2.75-.01-3.25-.53-3.25-3.29,0-19.07,0-38.15,0-57.22,0-2.6.38-2.97,3.06-2.97,10.75,0,21.5,0,32.25,0ZM101.98,103.53c5.15,0,10.31.01,15.46,0,2.39,0,2.82-.4,2.66-2.68-.53-7.64-1.71-15.16-4.22-22.43-.58-1.67-1.49-2.36-3.26-2.35-8.69.05-17.39,0-26.08.02-2.41,0-2.83.42-2.84,2.83-.02,7.27-.02,14.53,0,21.8,0,2.44.39,2.81,2.82,2.82,5.15.02,10.31,0,15.46,0ZM65.28,103.53c4.23,0,8.45.01,12.68,0,2.58,0,3.01-.43,2.99-3.07-.01-1.99-.19-3.97-.19-5.95-.02-5.15-.04-10.31.18-15.46.1-2.34-.65-2.96-3.01-2.96-8.39,0-16.78,0-25.16,0-2.27,0-2.86.58-2.87,2.88-.02,7.27-.01,14.54,0,21.81,0,2.3.43,2.75,2.71,2.76,4.22.02,8.45,0,12.68,0ZM82.04,148.62c7.49.07,13.23-5.54,13.58-12.7.41-8.37-7.07-14.16-13.08-14.1-7.47.07-13.59,5.81-13.66,13.11-.07,7.75,5.57,13.61,13.16,13.69Z"/>
  <path d="M156.71,151.39c-4.72,0-9.44,0-14.16,0-.92,0-2.09.11-2.17-1.17-.09-1.37,1.14-1.47,2.12-1.53,1.49-.09,2.98-.01,4.47-.07,2.03-.07,2.6-.68,2.65-2.75.02-.93.02-1.86,0-2.79-.02-2.21-.4-2.62-2.61-2.63-4.78-.01-9.56.02-14.35.02-4.57,0-4.69-.13-4.69-4.7,0-3.73,0-7.45,0-11.18,0-2.37-.34-2.71-2.69-2.75-6.52-.11-13.04-.2-19.55-.31-.62-.01-1.24-.04-1.84-.17-.6-.13-.95-.58-.98-1.21-.03-.67.41-1.05.99-1.18.6-.14,1.22-.19,1.84-.21,7.51-.18,15.02.21,22.53.33,1.98.03,2.46.54,2.47,2.63.03,4.35,0,8.7.02,13.04,0,2.26.36,2.61,2.6,2.61,4.6.02,9.19.02,13.79,0,2.12-.01,2.46-.38,2.47-2.54,0-.56-.02-1.12-.02-1.68,0-4.21,0-4.19-4.3-4.21-5.36-.03-4.76.65-6.48-4.79-2.6-8.22-4.03-16.66-3.71-25.3.3-8.05,1.89-15.88,4.6-23.48.55-1.53,1.52-2.11,3.08-2.11,9.25.03,18.51.03,27.76,0,1.67,0,2.64.63,3.2,2.21,2.25,6.35,3.72,12.88,4.33,19.58.97,10.62-.66,20.91-4.07,30.96-.92,2.73-1.21,2.93-4.15,2.92-1.37,0-2.73.04-4.1,0-1.55-.04-2.17.84-2.09,2.21.32,5.03.1,10.06.12,15.09,0,1.75.65,2.47,2.43,2.41,1.79-.07,3.6.04,5.39.15.76.05,1.54.36,1.52,1.31-.02,1.08-.87,1.25-1.72,1.25-4.91.01-9.81,0-14.72,0v.02ZM156.86,76.07c-3.91,0-7.83.05-11.74-.02-1.9-.04-2.97.68-3.56,2.52-4.77,15.02-4.8,30.01-.06,45.05.63,1.99,1.75,2.75,3.81,2.72,7.33-.09,14.66-.04,21.99-.08,3.32-.01,4.06-.57,5.03-3.79,2.26-7.55,3.29-15.26,3.07-23.16-.19-6.93-1.2-13.71-3.37-20.31-.88-2.7-1.29-2.94-4.18-2.93-3.67,0-7.33,0-11,0ZM152.4,138.8c0,2.54.02,5.09,0,7.63-.02,1.46.62,2.21,2.1,2.2,1.49,0,2.98-.03,4.46,0,1.54.03,2.16-.83,2.09-2.21-.23-5.08-.25-10.16,0-15.24.07-1.4-.59-2.23-2.11-2.22-1.43.02-2.85.04-4.28-.02-1.59-.06-2.28.68-2.27,2.22.01,2.54,0,5.09,0,7.63Z"/>
  <path d="M154.15,102.55c-1.16-.24-2.97.67-3.73-.93-.67-1.43.83-2.47,1.55-3.56,1.78-2.69,3.68-5.31,5.54-7.94.39-.56.77-1.15,1.44-1.41.52-.2,1-.08,1.35.33.6.69.38,1.41-.07,2.05-1.44,2.1-2.93,4.16-4.37,6.26-.37.54-1.03,1.06-.69,1.81.39.86,1.28.61,1.99.63,1.36.05,2.74-.03,4.1.05,1.94.12,2.48,1.11,1.4,2.69-2.3,3.39-4.68,6.72-7.05,10.07-.56.79-1.25,1.56-2.3.82-.97-.69-.46-1.57.03-2.3,1.25-1.85,2.57-3.65,3.83-5.5.51-.74,1.38-1.48.84-2.49-.51-.95-1.56-.49-2.39-.57-.43-.04-.87,0-1.48,0Z"/>
</svg>
